assets/images/product-illustrations/simple-illustration__smartscan.svg

<svg xmlns="http://www.w3.org/2000/svg" width="48" height="48" fill="none" viewBox="0 0 48 48"><path fill="#F25730" d="M42.7864 15.4785H5.17778C4.07103 15.4785 3.17383 16.3757 3.17383 17.4825V37.9962C3.17383 39.103 4.07103 40.0002 5.17778 40.0002H42.7864C43.8931 40.0002 44.7903 39.103 44.7903 37.9962V17.4825C44.7903 16.3757 43.8931 15.4785 42.7864 15.4785Z"/><path stroke="#002140" stroke-linecap="round" stroke-linejoin="round" d="M42.4553 15.3701H5.39567C4.07258 15.3701 3 16.4427 3 17.7658V37.4828C3 38.8059 4.07258 39.8785 5.39567 39.8785H42.4553C43.7784 39.8785 44.851 38.8059 44.851 37.4828V17.7658C44.851 16.4427 43.7784 15.3701 42.4553 15.3701Z"/><path stroke="#002140" stroke-linecap="round" stroke-linejoin="round" d="M6.94739 35.8877L12.6056 35.886"/><path stroke="#002140" stroke-linecap="round" stroke-linejoin="round" d="M15.1997 35.8867L20.8586 35.8876"/><path fill="#F5D5FF" d="M13.3947 26.6689H12.4114C12.1553 26.6689 11.9478 26.8765 11.9478 27.1326V28.926C11.9478 29.1821 12.1553 29.3897 12.4114 29.3897H13.3947C13.6508 29.3897 13.8584 29.1821 13.8584 28.926V27.1326C13.8584 26.8765 13.6508 26.6689 13.3947 26.6689Z"/><path fill="#F5D5FF" d="M13.42 23.9385H12.4367C12.1806 23.9385 11.973 24.1461 11.973 24.4022V25.7319C11.973 25.988 12.1806 26.1956 12.4367 26.1956H13.42C13.6761 26.1956 13.8837 25.988 13.8837 25.7319V24.4022C13.8837 24.1461 13.6761 23.9385 13.42 23.9385Z"/><path fill="#F5D5FF" d="M15.8423 27.1045H14.8589C14.6029 27.1045 14.3953 27.3121 14.3953 27.5682V28.8979C14.3953 29.154 14.6029 29.3616 14.8589 29.3616H15.8423C16.0983 29.3616 16.3059 29.154 16.3059 28.8979V27.5682C16.3059 27.3121 16.0983 27.1045 15.8423 27.1045Z"/><path fill="#F5D5FF" d="M15.7831 23.9385H14.7997C14.5437 23.9385 14.3361 24.1461 14.3361 24.4022V26.3128C14.3361 26.5689 14.5437 26.7765 14.7997 26.7765H15.7831C16.0391 26.7765 16.2467 26.5689 16.2467 26.3128V24.4022C16.2467 24.1461 16.0391 23.9385 15.7831 23.9385Z"/><path fill="#F5D5FF" d="M11.4883 28.9322L11.4879 24.3172C11.4881 24.0761 11.2946 23.8838 11.0535 23.8836L9.47571 23.883C9.34127 23.8821 9.21385 23.9452 9.13183 24.0496L8.59494 24.7413C8.53651 24.8182 8.50374 24.9109 8.50196 25.0072L8.50056 28.3573C8.49952 28.4452 8.52822 28.5315 8.57842 28.6044L8.9814 29.1825C9.06404 29.2998 9.1983 29.3693 9.34051 29.3684L11.0534 29.3615C11.2913 29.3597 11.4862 29.1655 11.4871 28.927L11.4883 28.9322Z"/><path fill="#002140" d="M38.724 23.5107H24.7924C23.7077 23.5107 22.8284 24.39 22.8284 25.4747V27.1162C22.8284 28.2009 23.7077 29.0802 24.7924 29.0802H38.724C39.8087 29.0802 40.688 28.2009 40.688 27.1162V25.4747C40.688 24.39 39.8087 23.5107 38.724 23.5107Z"/><path fill="#FFFAF0" d="M26.8327 21.3812C30.2015 21.3812 32.9325 18.6502 32.9325 15.2814C32.9325 11.9126 30.2015 9.18164 26.8327 9.18164C23.4639 9.18164 20.7329 11.9126 20.7329 15.2814C20.7329 18.6502 23.4639 21.3812 26.8327 21.3812Z"/><path fill="#FFFAF0" d="M35.0562 21.4691C38.425 21.4691 41.156 18.7381 41.156 15.3693C41.156 12.0005 38.425 9.26953 35.0562 9.26953C31.6874 9.26953 28.9564 12.0005 28.9564 15.3693C28.9564 18.7381 31.6874 21.4691 35.0562 21.4691Z"/><path fill="#D08000" d="M40.6841 13.4826C40.6841 13.4826 38.7974 9.23754 35.8501 9.06166C32.9028 8.88579 30.8989 10.2395 30.8989 10.2395C30.8989 10.2395 29.0708 9.00037 26.4193 9.17892C23.7678 9.35746 21.3802 11.8011 21.0551 13.5412C21.0551 13.5412 22.5873 14.7804 25.1802 14.7804C27.7731 14.7804 28.5405 14.6045 28.5405 14.6045L28.9536 13.3653C28.9536 13.3653 32.4312 15.0735 35.6156 14.9562C38.8001 14.839 40.6841 13.4826 40.6841 13.4826Z"/><path stroke="#002140" stroke-linecap="round" stroke-linejoin="round" d="M31.1046 10.2605C32.1359 9.46902 33.4283 9 34.8273 9C38.2143 9 40.9564 11.7448 40.9564 15.1291C40.9564 18.5134 38.2117 21.2582 34.8273 21.2582C31.443 21.2582 28.6982 18.5134 28.6982 15.1291C28.6982 13.1438 29.6416 11.3797 31.1046 10.2578"/><path stroke="#002140" stroke-linecap="round" stroke-linejoin="round" d="M30.8274 19.9127C29.7775 20.7575 28.4424 21.2611 26.99 21.2611C23.6031 21.2611 20.861 18.5163 20.861 15.132C20.861 11.7477 23.6057 9.00293 26.99 9.00293C28.3838 9.00293 29.6682 9.46661 30.6968 10.2501"/><path stroke="#002140" stroke-linecap="round" stroke-linejoin="round" d="M29.0526 13.5996C29.0526 13.5996 33.3563 16.2511 40.6659 13.5996"/><path stroke="#002140" stroke-linecap="round" stroke-linejoin="round" d="M21.0952 13.5996C21.0952 13.5996 23.8053 15.2705 28.578 14.6336"/><path fill="#002140" d="M35.4775 17.9031L32.8313 18.4414C33.1378 20.0163 34.5235 21.2022 36.1863 21.2022C38.0757 21.2022 39.6053 19.6726 39.6053 17.7832C39.6053 15.8939 38.0757 14.3643 36.1863 14.3643C34.9098 14.3643 33.796 15.0651 33.2097 16.1044L35.4801 17.9005L35.4775 17.9031Z"/><path fill="#002140" d="M30.5849 20.1419C29.9666 20.7601 29.1112 21.1438 28.1679 21.1438C26.505 21.1438 25.1193 19.9553 24.8129 18.3831L27.459 17.8448L25.1886 16.0487C25.7749 15.0094 26.8888 14.3086 28.1652 14.3086C28.4024 14.3086 28.6315 14.3326 28.8554 14.3779C28.8554 14.3779 28.2265 18.1992 30.5822 19.4943"/></svg>

<svg xmlns="http://www.w3.org/2000/svg" width="48" height="48" fill="none" viewBox="0 0 48 48"><path fill="#f25730" d="M42.786 15.479H5.178a2.004 2.004 0 0 0-2.004 2.004v20.513c0 1.107.897 2.004 2.004 2.004h37.608a2.004 2.004 0 0 0 2.004-2.004V17.483a2.004 2.004 0 0 0-2.004-2.005"/><path stroke="#002140" stroke-linecap="round" stroke-linejoin="round" d="M42.455 15.37H5.395A2.396 2.396 0 0 0 3 17.766v19.717a2.396 2.396 0 0 0 2.396 2.396h37.06a2.396 2.396 0 0 0 2.395-2.396V17.766a2.396 2.396 0 0 0-2.396-2.396M6.947 35.888l5.659-.002M15.2 35.887h5.659"/><path fill="#f5d5ff" d="M13.395 26.669h-.984a.464.464 0 0 0-.463.464v1.793c0 .256.207.464.463.464h.984a.464.464 0 0 0 .463-.464v-1.793a.464.464 0 0 0-.463-.464M13.42 23.939h-.983a.464.464 0 0 0-.464.463v1.33c0 .256.208.464.464.464h.983a.464.464 0 0 0 .464-.464v-1.33a.464.464 0 0 0-.464-.463M15.842 27.105h-.983a.464.464 0 0 0-.464.463v1.33c0 .256.208.464.464.464h.983a.464.464 0 0 0 .464-.464v-1.33a.464.464 0 0 0-.464-.463M15.783 23.939H14.8a.464.464 0 0 0-.464.463v1.91c0 .257.208.464.464.464h.983a.464.464 0 0 0 .464-.463v-1.91a.464.464 0 0 0-.464-.464M11.488 28.932v-4.615a.43.43 0 0 0-.434-.433l-1.578-.001a.44.44 0 0 0-.344.167l-.537.691a.45.45 0 0 0-.093.266l-.001 3.35a.43.43 0 0 0 .077.247l.403.579a.44.44 0 0 0 .36.185l1.712-.006a.44.44 0 0 0 .434-.435z"/><path fill="#002140" d="M38.724 23.51H24.792c-1.084 0-1.964.88-1.964 1.965v1.641c0 1.085.88 1.964 1.964 1.964h13.932c1.085 0 1.964-.88 1.964-1.964v-1.641c0-1.085-.88-1.964-1.964-1.964"/><path fill="#fffaf0" d="M26.833 21.381a6.1 6.1 0 1 0 0-12.2 6.1 6.1 0 0 0 0 12.2"/><path fill="#fffaf0" d="M35.056 21.47a6.1 6.1 0 1 0 0-12.2 6.1 6.1 0 0 0 0 12.2"/><path fill="#d08000" d="M40.684 13.483s-1.887-4.245-4.834-4.421S30.9 10.24 30.9 10.24 29.07 9 26.419 9.179c-2.651.178-5.039 2.622-5.364 4.362 0 0 1.532 1.24 4.125 1.24s3.36-.177 3.36-.177l.414-1.239s3.477 1.708 6.662 1.591 5.068-1.473 5.068-1.473"/><path stroke="#002140" stroke-linecap="round" stroke-linejoin="round" d="M31.105 10.26a6.128 6.128 0 0 1 9.852 4.869 6.13 6.13 0 1 1-9.852-4.871"/><path stroke="#002140" stroke-linecap="round" stroke-linejoin="round" d="M30.827 19.913a6.1 6.1 0 0 1-3.837 1.348 6.13 6.13 0 1 1 3.707-11.011"/><path stroke="#002140" stroke-linecap="round" stroke-linejoin="round" d="M29.053 13.6s4.303 2.651 11.613 0M21.095 13.6s2.71 1.67 7.483 1.034"/><path fill="#002140" d="m35.478 17.903-2.647.538a3.42 3.42 0 0 0 3.355 2.761c1.89 0 3.42-1.53 3.42-3.419a3.418 3.418 0 0 0-6.396-1.679l2.27 1.797zM30.585 20.142a3.42 3.42 0 0 1-5.772-1.759l2.646-.538-2.27-1.796a3.41 3.41 0 0 1 3.666-1.671s-.628 3.821 1.727 5.116"/></svg>
